X:1
T:Title
%%score { ( 1 3 ) | ( 2 4 ) }
L:1/8
Q:1/4=87
M:6/8
K:Ab
V:1 treble nm="Grand Piano"
V:3 treble 
V:2 bass 
V:4 bass 
V:1
 [Ec]>[DB][CA] [CA][DG][EA] | B>BB FF[FA] | G>GG GcB | AAB c3 | [Ec]>[DB][CA] [CA][DG][EA] | %5
w: W.~A.~Post * * * * *|||||
 B>BB FF[FA] | [EG]>[FA][GB] [Ge][GB][EG] | [FA][EG][=DF] E3 | e3 z3 | [Gd]3 B3 | %10
w: |||||
 [Ec]>[DB][CA] [EA][EB][Ec] | [=DB][DF][Dc] [EB]3 | z3 [Ee]3 | .[FA]3 [Fd]3 | c>dc BEB | [CA]6 |] %16
w: ||||||
V:2
 [A,,A,]>[A,,A,][A,,A,] [A,,E,][B,,E,][C,A,] | [D,F,D]>[D,F,D][D,F,D] [D,B,D][D,B,D][=D,B,] | %2
 [E,B,E]>[E,B,E][E,B,E] [E,B,E][E,G,E][E,G,D] | [A,C][A,C][A,D] [A,E]3 | %4
 [A,,A,]>[A,,A,][A,,A,] [A,,E,][B,,E,][C,A,] | [D,F,D]>[D,F,D][D,F,D] [D,B,D][D,B,D][=D,B,] | %6
 [E,B,]>[E,B,][E,E] [E,B,][E,E][E,B,] | [B,,B,][B,,B,][B,,A,] [E,G,]3 | A3 z3 | z3 E3 | %10
 [A,,A,]>[A,,A,][A,,A,] [C,A,][B,,G,][A,,A,] | [B,,A,][B,,A,][B,,A,] [E,G,]3 | A,>A,A, [G,B,]2 G, | %13
 F,F,[E,C] [D,A,]2 D, | [E,A,E]>[E,B,E][E,A,E] [E,G,D][E,G,D][E,G,D] | [A,,A,]6 |] %16
V:3
 x6 | x6 | x6 | x6 | x6 | x6 | x6 | x6 | z CC [Ec]3 | z z/ B,/B, z2 G, | x6 | x6 | [Ec]3 z2 B, | %13
 CC_G z2 A, | x6 | x6 |] %16
V:4
 x6 | x6 | x6 | x6 | x6 | x6 | x6 | x6 | [A,C]A,A, A,2 A, | [E,B,]>E,E, [E,G,]2 E, | x6 | x6 | x6 | %13
 x6 | x6 | x6 |] %16

